X:1
T:Narenza, SM
T:Narenza, SM
T:Katholische Kirchengesang (Cologn
T:Public Domain Courtesy of the Cyber Hymnal™
C:Katholische Kirchengesang (Cologn
Z:Public Domain
Z:Courtesy of the Cyber Hymnal™
%%score ( 1 2 ) ( 3 4 )
L:1/8
Q:1/4=117
M:4/4
K:Bb
V:1 treble 
V:2 treble 
V:3 bass 
V:4 bass 
V:1
 [FB]2 | [FA]2 F2 [EG]2 [EA]2 | [DB]6 [Fd]2 | [=Ec]2 [FA]2 [FB]2 [EG]2 | F6 [DF]2 | %5
 [EF]2 [DF]2 [B,G]2 [CA]2 | [DB]2 [=EG]2 [FA]2 [Fd]2 | [Fc]2 [FB]2 [Gc]2 [Fc]2 | [DB]6 |] %9
V:2
 x2 | x2 F2 x4 | x8 | x8 | F6 x2 | x8 | x8 | x8 | x6 |] %9
V:3
 [B,,D]2 | [F,C]2 [D,B,]2 [E,B,]2 [C,C]2 | [B,,F,]6 [B,,B,]2 | [C,G,]2 [D,F,]2 [B,,D]2 [C,C]2 | %4
 [F,A,]6 [B,,B,]2 | [A,,C]2 [B,,B,]2 [E,G,]2 [C,E,]2 | [B,,F,]2 [C,C]2 [F,C]2 B,2 | %7
 [F,A,]2 [D,B,]2 [E,B,]2 [F,A,]2 | [B,,B,]6 |] %9
V:4
 x2 | x8 | x8 | x8 | x8 | x8 | x6 B,2 | x8 | x6 |] %9

